priv/static/svgs/icons_new/sport-motorcycle-racing.svg

<svg width="32" height="32" viewBox="0 0 32 32" fill="none" xmlns="http://www.w3.org/2000/svg">
<path d="M21.7917 8C21.7917 8 25.8595 9.94917 27.5883 14.678C27.5883 14.678 21.7917 14.9492 20.0967 22.7459H12.978M25.6327 15.2554C25.6327 15.2554 28.0844 16.1707 28.5369 17.4131C28.5369 17.4131 26.7064 16.8707 25.453 17.2097M23.7126 16.8135L25.2151 20.8695M28.4703 18.9527C28.8068 19.5129 29 20.1688 29 20.8697C29 22.929 27.3305 24.5985 25.2712 24.5985C23.7076 24.5985 22.3694 23.6375 21.8152 22.2722M10.8093 19.5907C10.9551 19.9899 11.0348 20.4204 11.0348 20.8696C11.0348 22.9289 9.36525 24.5984 7.30591 24.5984C5.24657 24.5984 3.57706 22.9289 3.57706 20.8696C3.57706 18.8102 5.24657 17.1407 7.30591 17.1407C8.30083 17.1407 9.20508 17.5305 9.87373 18.1661M15.1247 21.1187L17.0459 20.5881C20.3595 19.7915 18.4103 17.8 18.0629 16.7008C17.0561 13.5135 24.4697 12.4186 24.4697 12.4186M22.5374 11.2774L21.4068 9.80794L20.4187 9.94947M20.2773 12.1029C20.2773 12.1029 20.2663 10.5995 17.2154 10.5995C17.2154 10.5995 15.2154 10.486 13.1814 12.747H8.32293L7.19326 10.43H3L7.38478 14.6106C7.38478 14.6106 12.6043 15.3563 12.9552 20.5877M12.4016 18.8811L7.3049 20.8693M7.7804 11.2766H12.8932M16.7576 18.1349C16.7576 18.837 16.1885 19.4061 15.4864 19.4061C14.7844 19.4061 14.2153 18.837 14.2153 18.1349C14.2153 17.4328 14.7844 16.8637 15.4864 16.8637C16.1885 16.8637 16.7576 17.4328 16.7576 18.1349Z" stroke="black" stroke-linecap="round"/>
</svg>

<svg width="32" height="32" viewBox="0 0 32 32" fill="none" xmlns="http://www.w3.org/2000/svg">
  <symbol id="item" viewBox="0 0 32 32" stroke-width="1" fill="none">
    <path d="M21.792 8s4.067 1.95 5.796 6.678c0 0-5.796.271-7.491 8.068h-7.119m12.655-7.49s2.451.915 2.904 2.157c0 0-1.83-.542-3.084-.203m-1.74-.396 1.502 4.055m3.255-1.916a3.729 3.729 0 1 1-6.655 3.32M10.81 19.59a3.729 3.729 0 1 1-.936-1.425m5.252 2.953 1.92-.53c3.314-.797 1.365-2.789 1.018-3.888-1.007-3.188 6.407-4.282 6.407-4.282m-1.933-1.142-1.13-1.47-.988.142m-.142 2.154s-.01-1.503-3.062-1.503c0 0-2-.114-4.034 2.147H8.323l-1.13-2.317H3l4.385 4.18s5.22.746 5.57 5.978m-.553-1.707L7.305 20.87m.475-9.592h5.113m3.865 6.858a1.271 1.271 0 1 1-2.543 0 1.271 1.271 0 0 1 2.543 0Z" stroke="currentColor" stroke-linecap="round"/>
  </symbol>
</svg>
